icons/standard_slate-tt-48_pin.svg

<svg xmlns="http://www.w3.org/2000/svg" viewBox="0 0 48 48"><style>.st0{fill:none}.st1{fill:#bec0c3}.st2{fill:#282c36}</style><path class="st0" d="M0 0h48v48H0z" id="Boundary"/><g id="Design"><path class="st1" d="M24 8.01c4.42 0 8 3.58 8 7.99 0 4.42-3.58 8-8 8-4.41 0-7.99-3.58-7.99-8 0-4.41 3.58-7.99 7.99-7.99z"/><path class="st2" d="M34.824 3.875C30.874.626 25.686-.664 20.579.337 13.936 1.625 8.59 6.964 7.279 13.624a17.446 17.446 0 0 0-.009 6.886c.382 1.875 1.185 3.791 2.385 5.695l13.5 21.35a.999.999 0 0 0 .839.465H24a1 1 0 0 0 .839-.455c.55-.847 13.48-20.757 14.616-23.201a16.968 16.968 0 0 0 1.615-7.254 17.08 17.08 0 0 0-6.246-13.235zm2.819 19.644c-.812 1.748-8.832 14.244-13.632 21.647L11.346 25.137c-1.07-1.698-1.782-3.389-2.115-5.023a15.47 15.47 0 0 1 .011-6.101c1.155-5.872 5.865-10.579 11.721-11.712a15.604 15.604 0 0 1 3.015-.294 15.03 15.03 0 0 1 9.577 3.413 15.087 15.087 0 0 1 5.517 11.69 15.02 15.02 0 0 1-1.429 6.409z"/><path class="st2" d="M24 7.01c-4.957 0-8.99 4.033-8.99 8.99 0 4.962 4.033 9 8.99 9 4.963 0 9-4.038 9-9 0-4.957-4.037-8.99-9-8.99zM24 23c-3.854 0-6.99-3.14-6.99-7A6.998 6.998 0 0 1 24 9.01c3.859 0 7 3.136 7 6.99 0 3.86-3.141 7-7 7z"/></g></svg>

<?xml version="1.0" encoding="utf-8"?>
<!-- Generator: Adobe Illustrator 19.2.1, SVG Export Plug-In . SVG Version: 6.00 Build 0)  -->
<svg version="1.1" xmlns="http://www.w3.org/2000/svg" xmlns:xlink="http://www.w3.org/1999/xlink" x="0px" y="0px"
	 viewBox="0 0 48 48" style="enable-background:new 0 0 48 48;" xml:space="preserve">
<style type="text/css">
	.st0{fill:none;}
	.st1{fill:#BEC0C3;}
	.st2{fill:#282C36;}
</style>
<g id="Boundary">
	<rect class="st0" width="48" height="48"/>
</g>
<g id="Design">
	<g>
		<g>
			<path class="st1" d="M24,8.01c4.42,0,8,3.58,8,7.99c0,4.42-3.58,8-8,8c-4.41,0-7.99-3.58-7.99-8C16.01,11.59,19.59,8.01,24,8.01z
				"/>
		</g>
		<g>
			<path class="st2" d="M34.824,3.875c-3.95-3.249-9.138-4.539-14.245-3.538C13.936,1.625,8.59,6.964,7.279,13.624
				c-0.46,2.299-0.464,4.615-0.009,6.886c0.382,1.875,1.185,3.791,2.385,5.695l13.5,21.35c0.182,0.288,0.498,0.463,0.839,0.465
				c0.002,0,0.004,0,0.006,0c0.339,0,0.654-0.171,0.839-0.455c0.55-0.847,13.48-20.757,14.616-23.201
				c1.072-2.287,1.615-4.728,1.615-7.254C41.07,11.965,38.794,7.142,34.824,3.875z M37.643,23.519
				c-0.812,1.748-8.832,14.244-13.632,21.647L11.346,25.137c-1.07-1.698-1.782-3.389-2.115-5.023
				c-0.401-2.007-0.398-4.059,0.011-6.101c1.155-5.872,5.865-10.579,11.721-11.712c1.006-0.198,2.015-0.294,3.015-0.294
				c3.49,0,6.866,1.183,9.577,3.413c3.506,2.885,5.517,7.146,5.517,11.69C39.07,19.341,38.591,21.496,37.643,23.519z"/>
			<path class="st2" d="M24,7.01c-4.957,0-8.99,4.033-8.99,8.99c0,4.962,4.033,9,8.99,9c4.963,0,9-4.038,9-9
				C33,11.043,28.963,7.01,24,7.01z M24,23c-3.854,0-6.99-3.14-6.99-7c0-3.854,3.136-6.99,6.99-6.99c3.859,0,7,3.136,7,6.99
				C31,19.86,27.859,23,24,23z"/>
		</g>
	</g>
</g>
</svg>
